flaticon/science/laboratory.svg

<svg xmlns="http://www.w3.org/2000/svg" width="32" height="32" viewBox="0 0 24 24">
    <path d="M 18 17.601562 C 18 18.921875 19.078125 20 20.398438 20 C 21.71875 20 22.800781 18.921875 22.800781 17.601562 L 22.800781 13.199219 L 23.601562 13.199219 C 23.839844 13.199219 24 13.039062 24 12.800781 L 24 9.601562 C 24 9.359375 23.839844 9.199219 23.601562 9.199219 L 22.800781 9.199219 L 22.800781 8.398438 L 23.199219 8.398438 C 23.441406 8.398438 23.601562 8.238281 23.601562 8 L 23.601562 5.601562 C 23.601562 5.359375 23.441406 5.199219 23.199219 5.199219 L 17.601562 5.199219 C 17.359375 5.199219 17.199219 5.359375 17.199219 5.601562 L 17.199219 8 C 17.199219 8.238281 17.359375 8.398438 17.601562 8.398438 L 18 8.398438 L 18 9.199219 L 17.199219 9.199219 C 16.960938 9.199219 16.800781 9.359375 16.800781 9.601562 L 16.800781 10 L 14.398438 10 C 14.398438 9.707031 14.238281 9.449219 14 9.308594 L 14 7.890625 C 14.238281 7.753906 14.398438 7.496094 14.398438 7.199219 L 14.398438 4.800781 C 14.398438 4.503906 14.238281 4.246094 14 4.109375 L 14 2.800781 C 14 2.558594 13.839844 2.398438 13.601562 2.398438 L 10.800781 2.398438 C 10.558594 2.398438 10.398438 2.558594 10.398438 2.800781 L 10.398438 4.09375 C 10.328125 4.128906 10.261719 4.179688 10.199219 4.238281 C 10.078125 4.398438 10 4.601562 10 4.800781 L 7.199219 4.800781 L 7.199219 4.398438 C 7.199219 4.160156 7.039062 4 6.800781 4 L 6 4 L 6 3.199219 L 6.398438 3.199219 C 6.640625 3.199219 6.800781 3.039062 6.800781 2.800781 L 6.800781 0.398438 C 6.800781 0.160156 6.640625 0 6.398438 0 L 0.800781 0 C 0.558594 0 0.398438 0.160156 0.398438 0.398438 L 0.398438 2.800781 C 0.398438 3.039062 0.558594 3.199219 0.800781 3.199219 L 1.199219 3.199219 L 1.199219 4 L 0.398438 4 C 0.160156 4 0 4.160156 0 4.398438 L 0 7.601562 C 0 7.839844 0.160156 8 0.398438 8 L 1.199219 8 L 1.199219 12.398438 C 1.199219 13.71875 2.28125 14.800781 3.601562 14.800781 C 4.921875 14.800781 6 13.71875 6 12.398438 L 6 8 L 6.800781 8 C 7.039062 8 7.199219 7.839844 7.199219 7.601562 L 7.199219 7.199219 L 10 7.199219 C 10.011719 7.390625 10.085938 7.609375 10.199219 7.761719 C 10.261719 7.820312 10.328125 7.871094 10.398438 7.90625 L 10.398438 9.292969 C 10.328125 9.328125 10.261719 9.378906 10.199219 9.441406 C 10.078125 9.601562 10 9.800781 10 10 L 10 12.359375 C 10 12.558594 10.078125 12.800781 10.199219 12.960938 C 10.238281 12.996094 10.277344 13.03125 10.320312 13.058594 L 10.320312 20.800781 L 1.601562 20.800781 C 0.71875 20.800781 0 21.519531 0 22.398438 C 0 23.28125 0.71875 24 1.601562 24 L 10 24 C 10.121094 24 10.199219 23.960938 10.28125 23.878906 L 10.960938 23.199219 L 13.441406 23.199219 L 14.121094 23.878906 C 14.199219 23.960938 14.28125 24 14.398438 24 L 22.398438 24 C 23.28125 24 24 23.28125 24 22.398438 C 24 21.519531 23.28125 20.800781 22.398438 20.800781 L 13.921875 20.800781 L 13.921875 13.132812 C 14.203125 13.007812 14.398438 12.726562 14.398438 12.398438 L 16.800781 12.398438 L 16.800781 12.800781 C 16.800781 13.039062 16.960938 13.199219 17.199219 13.199219 L 18 13.199219 Z M 22 17.601562 C 22 18.480469 21.28125 19.199219 20.398438 19.199219 C 19.519531 19.199219 18.800781 18.480469 18.800781 17.601562 L 18.800781 16.398438 L 22 16.398438 Z M 23.199219 12.398438 L 22.398438 12.398438 L 22.398438 10 L 23.199219 10 Z M 18 6 L 22.800781 6 L 22.800781 7.601562 L 18 7.601562 Z M 10.800781 10 L 13.601562 10 L 13.601562 12.398438 L 10.800781 12.398438 Z M 10.800781 6.800781 L 10.800781 4.800781 L 13.601562 4.800781 L 13.601562 7.199219 L 10.800781 7.199219 Z M 11.199219 8 L 13.199219 8 L 13.199219 9.199219 L 11.199219 9.199219 Z M 11.199219 3.199219 L 13.199219 3.199219 L 13.199219 4 L 11.199219 4 Z M 1.199219 0.800781 L 6 0.800781 L 6 2.398438 L 1.199219 2.398438 Z M 0.800781 4.800781 L 1.601562 4.800781 L 1.601562 7.199219 L 0.800781 7.199219 Z M 5.199219 12.398438 C 5.199219 13.28125 4.480469 14 3.601562 14 C 2.71875 14 2 13.28125 2 12.398438 L 2 9.601562 L 5.199219 9.601562 Z M 5.199219 8.800781 L 2 8.800781 L 2 8 C 2.238281 8 2.398438 7.839844 2.398438 7.601562 L 2.398438 4.398438 C 2.398438 4.160156 2.238281 4 2 4 L 2 3.199219 L 5.199219 3.199219 L 5.199219 4 C 4.960938 4 4.800781 4.160156 4.800781 4.398438 L 4.800781 7.601562 C 4.800781 7.839844 4.960938 8 5.199219 8 Z M 6.398438 7.199219 L 5.601562 7.199219 L 5.601562 4.800781 L 6.398438 4.800781 Z M 7.199219 5.601562 L 10 5.601562 L 10 6.398438 L 7.199219 6.398438 Z M 23.199219 22.398438 C 23.199219 22.839844 22.839844 23.199219 22.398438 23.199219 L 14.558594 23.199219 L 13.878906 22.519531 C 13.800781 22.441406 13.71875 22.398438 13.601562 22.398438 L 10.800781 22.398438 C 10.679688 22.398438 10.601562 22.441406 10.519531 22.519531 L 9.839844 23.199219 L 1.601562 23.199219 C 1.160156 23.199219 0.800781 22.839844 0.800781 22.398438 C 0.800781 21.960938 1.160156 21.601562 1.601562 21.601562 L 22.398438 21.601562 C 22.839844 21.601562 23.199219 21.960938 23.199219 22.398438 Z M 11.121094 20.800781 L 11.121094 13.199219 L 13.121094 13.199219 L 13.121094 20.800781 Z M 14.398438 11.601562 L 14.398438 10.800781 L 16.800781 10.800781 L 16.800781 11.601562 Z M 17.601562 12 L 17.601562 10 L 18.398438 10 L 18.398438 12.398438 L 17.601562 12.398438 Z M 18.800781 9.199219 L 18.800781 8.398438 L 22 8.398438 L 22 9.199219 C 21.761719 9.199219 21.601562 9.359375 21.601562 9.601562 L 21.601562 12.800781 C 21.601562 13.039062 21.761719 13.199219 22 13.199219 L 22 15.601562 L 18.800781 15.601562 L 18.800781 13.199219 C 19.039062 13.199219 19.199219 13.039062 19.199219 12.800781 L 19.199219 9.601562 C 19.199219 9.359375 19.039062 9.199219 18.800781 9.199219 Z M 18.800781 9.199219"/>
</svg>

<svg xmlns="http://www.w3.org/2000/svg" width="32" height="32" viewBox="0 0 24 24">
    <path d="M18 17.602A2.404 2.404 0 0 0 20.398 20a2.407 2.407 0 0 0 2.403-2.398v-4.403h.8c.239 0 .399-.16.399-.398V9.6c0-.242-.16-.402-.398-.402H22.8v-.8h.398c.242 0 .403-.16.403-.399V5.602c0-.243-.16-.403-.403-.403h-5.597c-.243 0-.403.16-.403.403V8c0 .238.16.398.403.398H18V9.2h-.8c-.24 0-.4.16-.4.403V10h-2.402c0-.293-.16-.55-.398-.691V7.89a.795.795 0 0 0 .398-.692V4.801A.795.795 0 0 0 14 4.109V2.801c0-.242-.16-.403-.398-.403H10.8c-.242 0-.403.16-.403.403v1.293a.861.861 0 0 0-.199.144.957.957 0 0 0-.199.563H7.2v-.403C7.2 4.16 7.04 4 6.8 4H6v-.8h.398c.243 0 .403-.16.403-.4V.399C6.8.16 6.64 0 6.398 0H.801C.559 0 .398.16.398.398v2.403c0 .238.16.398.403.398h.398V4H.4C.16 4 0 4.16 0 4.398v3.204C0 7.84.16 8 .398 8H1.2v4.398a2.41 2.41 0 0 0 2.403 2.403A2.407 2.407 0 0 0 6 12.398V8h.8c.24 0 .4-.16.4-.398v-.403H10c.012.192.086.41.2.563.062.058.128.11.198.144v1.387a.778.778 0 0 0-.199.148c-.12.16-.199.36-.199.559v2.36c0 .199.078.44.2.6.038.036.077.071.12.099V20.8H1.602C.719 20.8 0 21.52 0 22.398 0 23.281.719 24 1.602 24H10c.121 0 .2-.04.281-.121l.68-.68h2.48l.68.68c.078.082.16.121.277.121h8c.883 0 1.602-.719 1.602-1.602 0-.878-.719-1.597-1.602-1.597h-8.476v-7.668a.802.802 0 0 0 .476-.735h2.403v.403c0 .238.16.398.398.398H18zm4 0c0 .878-.719 1.597-1.602 1.597a1.602 1.602 0 0 1-1.597-1.597v-1.204H22zm1.2-5.204h-.802V10h.801zM18 6h4.8v1.602H18zm-7.2 4h2.802v2.398H10.8zm0-3.2v-2h2.802v2.4H10.8zm.4 1.2h2v1.2h-2zm0-4.8h2V4h-2zM1.2.8H6v1.598H1.2zm-.4 4h.802v2.4H.8zm4.4 7.598C5.2 13.281 4.48 14 3.601 14A1.604 1.604 0 0 1 2 12.398V9.602h3.2zm0-3.597H2V8c.238 0 .398-.16.398-.398V4.398C2.398 4.16 2.238 4 2 4v-.8h3.2V4c-.24 0-.4.16-.4.398v3.204c0 .238.16.398.4.398zm1.198-1.602h-.796V4.801h.796zM7.2 5.602H10v.796H7.2zm16 16.796c0 .442-.36.801-.8.801h-7.84l-.68-.68a.366.366 0 0 0-.277-.12H10.8c-.121 0-.2.042-.281.12l-.68.68H1.602c-.442 0-.801-.36-.801-.8 0-.438.36-.797.8-.797h20.797c.442 0 .801.359.801.796zm-12.078-1.597v-7.602h2v7.602zm3.277-9.2v-.8h2.403v.8zm3.204.399v-2h.796v2.398h-.796zM18.8 9.2v-.802H22V9.2c-.238 0-.398.16-.398.403V12.8c0 .238.16.398.398.398v2.403h-3.2v-2.403c.24 0 .4-.16.4-.398V9.6c0-.242-.16-.402-.4-.402zm0 0"/>
</svg>
